X:1
T:Wassail 2
C:Traditional
M:6/8
L:1/8
Q:3/8=100
K:G
G A|G2d d2e|d2_B G2=F|G2A _B2c|d3-d2G|G2d d2e|d2_B G2=F|G2A _B2c|d3-d3||
w: Was-sail | O was-sail all | o-ver the town | Our toast is white | our ale's brown | Our bowl it is | made of the ma-| ple tree we'll drink | to thee
